X:1
T:James Gibb editions
T:Je ne mengé point de porc - Sermisy
T:#
%%score [ 1 2 3 4 ]
L:1/8
Q:1/4=130
M:4/4
K:F
V:1 treble nm="Soprano" snm="S"
V:2 treble nm="Alto" snm="A"
V:3 treble-8 nm="Tenor" snm="T"
V:4 bass nm="Bass" snm="B"
V:1
"^Je ne mengé point de porc""^Claudin de Sermisy\n(1490-1562)" z8 | z4 A3 B | c2 A2 (B4 | %3
w: |Je ne|men- geé point|
 A4 G2 A2 | G2) (G4 ^F2) |[M:4/4] G8- | G8 | z4 A2 A2 | F2 A2 G2 F2 | E2 D2 z4 | z8 | z4 G2 G2 | %12
w: |* de *|porc.||Tel- le|que je vous vois|di- re,||S'il a|
 B2 B2 c2 c2 | d4 z4 | z2 B2 A2 B2- | BBBB A2 G2 | d3 d d2 B2 | z2 Bc d2 B2 | z2 B4 d2 | %19
w: men- gé cent es-|trons,|il ne s'en|* fe- ra que ri- re.|Il les tour- ne,|il les vi- re,|il leur|
 c2 B2 B2 A2 | B4 A3 B | c2 A2 (G2 A2- | AG) (G4 ^F2) | G8- | G8 | z4 d2 d2 | c2 A2 Bc d2 | %27
w: rit et puis les|mort. Je ne|men- gé point *|* * de *|porc.||Le porc|s'en al- lait jou- ant|
 z4 G2 G2 | F2 G2 A2 B2 | A2 G2 z4 | z4 d2 d2 | c2 A2 Bc d2 | B2 B2 B2 B2 | A2 G2 ^F2 G2 | %34
w: tout au|long d'u- ne ri-|viè- re.|II veigt|ung es- tron nou- ant.|II lui print a|fè- re chè- re,|
 B2 A2 G2 B2 | B2 B2 A2 G2 | B2 A2 G2 B2 | B2 B2 A2 G2 ||[M:3/2] d8 c4 | B4 B4 A4 || %40
w: di- sant en ces-|te ma- niè- re:|"Es- tron nou- ant|en ri- viè- re,|rend toy|ou tu es|
[M:4/4] B4 A3 B | c2 A2 (G2 A2- | A2) (G4 ^F2) | G4[Q:1/4=128] A3[Q:1/4=126] B | %44
w: mort." Je ne|men- gé point *|* de *|porc. Je ne|
[Q:1/4=124] c2[Q:1/4=122] A2[Q:1/4=120] (G2[Q:1/4=118] A2- | %45
w: men- gé point *|
[Q:1/4=116] A2)[Q:1/4=113] (G4[Q:1/4=110] ^F2) |[Q:1/4=110] G16 |] %47
w: * de *|porc.|
V:2
 z8 | D3 _E F2 D2 | _E2 F2 G2 D2 | F4 E2 F2 | D4 D4 |[M:4/4] B,8 | z8 | z8 | D2 D2 B,2 D2 | %9
w: |Je ne men- gé|point de porc, je|ne men- gé|point de|porc.|||Tel- le que je|
 C2 B,2 A,2 G,2 | z8 | D2 D2 E2 C2 | (GFED E2) E2 | D4 z4 | z2 G2 F2 G2- | G2 F2 F2 D2 | %16
w: vous vois di- re,||S'il a men- gé|cent * * * * es-|trons,|il ne s'en|* fe- ra que|
 F2 G2 D2 G2 | F2 G2 D2 G2 | F2 G2 G2 A2 | A2 F2 F2 F2 | D4 C4- | C2 F2 E2 F2 | D4 D4 | B,4 z4 | %24
w: ri- re. Il les|tour- ne, il les|vi- re, il leur|rit et puis les|mort. Je|* ne men- gé|point de|porc.|
 C2 C2 _E3 F | G2 G2 D2 G2- | GFFF G2 B2 | A2 G2 z4 | z8 | C2 C2 _E3 F | G3 F D2 G2- | G2 F2 G4 | %32
w: Le porc s'en al-|lait jou- ant tout|* au long d'u- ne ri-|viè- re.||II veigt ung es-|tron nou- ant. II|* lui print|
 G2 G2 G2 F2 | F2 D2 D2 B,2 | (G2 F2 _E2 F2) | F2 F2 F2 D2 | G2 F2 _E2 F2 | F2 F2 F2 D2 || %38
w: a fè- re chè-|re, di- sant en|ces\- * * *|te ma- niè- re:|"Es- tron nou- ant|en ri- viè- re,|
[M:3/2] A8 A4 | F4 F4 F4 ||[M:4/4] D4 C4- | C2 F2 E2 F2 | D4 D4 | B,4 C4- | C2 F2 E2 F2 | D4 D4 | %46
w: rend toy|ou tu es|mort." Je|* ne men- gé|point de|pore. Je|* ne men- gé|point de|
 B,16 |] %47
w: porc.|
V:3
 z8 | z8 | z8 | A3 B c2 A2 | B4 A4 |[M:4/4][K:treble-8] G4 z4 | G2 G2 B2 B2 | c2 c2 d4 | z8 | %9
w: |||Je ne men- gé|point de|porc.|Le porc a con-|di- ti- on,||
 z4 d2 d2 | B2 c2 d2 B2 | A2 G2 z4 | z4 G2 G2 | B2 B2 c2 c2 | d4 d2 d2 | B2 d2 c2 B2 | %16
w: tel- le|que je vous vois|di- re.|S'il a|men- gé cent es-|trons, il ne|s'en fe- ra que|
 A2 G2 B2 d2 | c2 B2 B2 d2 | c2 B2 d2 f2 | e2 d2 c2 c2 | B4 z4 | A3 B c2 A2 | B4 A4 | G8 | z8 | %25
w: ri- re. Il les|tour- ne, il les|vi- re, il leur|rit et puis les|mort.|Je ne men- gé|point de|porc.||
 G2 G2 B2 B2 | c2 c2 d4 | d2 d2 B2 d2 | c2 B2 A2 G2 | z8 | G2 G2 B2 B2 | c2 c2 d4 | d2 d2 B2 d2 | %33
w: Le porc s'en al-|lait jou- ant|tout au long d'u-|ne ri- viè- re.||II veigt ung es-|tron nou- ant.|II lui print a|
 c2 B2 A2 G2 | d2 d2 B2 d2 | d2 d2 c2 B2 | d2 d2 B2 d2 | d2 d2 c2 B2 ||[M:3/2] f8 e4 | d4 c4 c4 || %40
w: fè- re chè- re,|di- sant en ces-|te ma- niè- re:|"Es- tron nou- ant|en ri- viè- re,|rend toy|ou tu es|
[M:4/4] B4 z4 | A3 B c2 A2 | B4 A4 | G4 z4 | A3 B c2 A2 | B4 A4 | G16 |] %47
w: mort."|Je ne men- gé|point de|porc.|Je ne men- gé|point de|porc.|
V:4
 A,3 B, C2 A,2 | B,2 G,2 D4 | z2 D,2 G,4 | F,4 C,2 F,2 | G,4 D,4 |[M:4/4] z4 G,2 G,2 | %6
w: Je ne men- gé|point de porc,|je ne|men- gé point|de porc.|Le porc|
 (B,3 A,) (G,F,_E,!tenuto!D,) | _E,2 E,2 D,4- | D,4 z4 | z2 G,2 D,2 G,2- | G,2 B,2 A,2 G,2 | %11
w: a * con\- * * *|di- ti- on,||tel- le que|* je vous vois|
 F,2 G,2 z4 | z4 C,2 C,2 | G,2 G,2 F,2 E,2 | D,2 G,2 D,2 G,2- | G,2 B,2 F,2 G,2 | D,2 G,2 G,2 G,2 | %17
w: di- re.|S'il a|men- gé cent es-|trons, il ne s'en|* fe- ra que|ri- re. Il les|
 A,2 G,2 G,2 G,2 | A,2 G,2 G,2 D,2 | A,2 B,2 F,2 F,2 | B,,4 F,4- | F,2 F,2 C,2 F,2 | G,4 D,4 | %23
w: tour- ne, il les|vi- re, il leur|rit et puis les|mort. Je|* ne men- gé|point de|
 G,8 | z4 C,2 C,2 | _E,3 F, G,2 G,2 | A,4 G,2 G,2 | F,2 G,2 G,2 B,2 | A,2 G,2 z4 | z4 C,2 C,2 | %30
w: porc.|Le porc|s'en al- lait jou-|ant tout au|long d'u- ne ri-|viè- re.|II veigt|
 _E,3 F, G,4 | A,4 G,4 | G,2 G,2 G,2 B,2 | F,2 G,2 D,2 G,2 | G,2 D,2 _E,2 B,,2 | %35
w: ung es- tron|nou- ant.|II lui print a|fè- re chè- re,|di- sant en ces-|
 B,,2 B,,2 F,2 G,2 | G,2 D,2 _E,2 B,,2 | B,,2 B,,2 F,2 G,2 ||[M:3/2] D,8 A,4 | B,4 F,4 F,4 || %40
w: te ma- niè- re:|"Es- tron nou- ant|en ri- viè- re,|rend toy|ou tu es|
[M:4/4] B,,4 F,4- | F,2 F,2 C,2 F,2 | G,4 D,4 | G,4 F,4- | F,2 F,2 C,2 F,2 | G,4 D,4 | G,16 |] %47
w: mort." Je|* ne men- gé|point de|porc. Je|* ne men- gé|point de|porc.|

